svg/Filled/video_filled.svg

<svg viewBox="0 0 24 24" xmlns="http://www.w3.org/2000/svg" width="24" height="24"><path fill-rule="evenodd" d="M16.6 2c2.24 0 3.36 0 4.22.44a4 4 0 0 1 1.74 1.74c.44.86.44 1.98.44 4.21v7.22c0 2.23 0 3.35-.44 4.2a4 4 0 0 1-1.74 1.75c-.65.33-1.44.41-2.74.43h-1.26l-.22.01H7.18c-2.1 0-3.17-.01-4-.44a4 4 0 0 1-1.74-1.74C1 18.96 1 17.84 1 15.6V8.39c0-2.23 0-3.35.44-4.2a4 4 0 0 1 1.74-1.75C4.04 2 5.16 2 7.4 2zM4 17.9l-1.16.03v.05a4 4 0 0 0 .2 1.02q.33.63.96.96l.12.05c.15.05.38.1.8.14q.47.04 1.17.04L6.1 20a17 17 0 0 0-.05-1.3l-.03-.12a1 1 0 0 0-.5-.55l-.1-.05a1 1 0 0 0-.39-.06c-.24-.02-.55-.02-1.03-.02m16 0a17 17 0 0 0-1.3.05l-.12.03q-.36.16-.55.5l-.05.1c-.02.06-.05.15-.06.39a17 17 0 0 0 0 1.22q.69 0 1.16-.04c.56-.04.79-.12.92-.19l.15-.09q.53-.3.81-.87l.05-.12c.05-.15.1-.38.14-.8V18l.01-.06-.13-.01c-.24-.02-.55-.02-1.03-.02m-16.5-5-.64.01H2.8v3.17h.06c.1.02.26.02.64.02h1c.5 0 .63 0 .71-.02l.16-.04c.36-.13.63-.44.7-.83l.02-.07a9 9 0 0 0 0-1.28l-.01-.07a1.1 1.1 0 0 0-.7-.83l-.17-.04c-.08-.02-.2-.02-.71-.02zm16 0-.64.01-.07.01c-.39.08-.7.35-.83.7l-.04.17c-.02.08-.02.2-.02.71 0 .5 0 .63.02.71l.04.16c.13.36.44.63.83.7l.07.02.64.01h1c.47 0 .61 0 .7-.02v-3.16a6 6 0 0 0-.7-.02zM8.2 10.8a1.2 1.2 0 0 0 0 2.4h7.6a1.2 1.2 0 0 0 0-2.4zM3.5 7.9l-.64.01H2.8v3.17h.06c.1.02.26.02.64.02h1c.5 0 .63 0 .71-.02l.16-.04c.36-.13.63-.44.7-.83l.02-.07a9 9 0 0 0 0-1.28l-.01-.07a1.1 1.1 0 0 0-.7-.83l-.17-.04c-.08-.02-.2-.02-.71-.02zm16 0-.64.01-.07.01c-.39.08-.7.35-.83.7l-.04.17c-.02.08-.02.2-.02.71 0 .5 0 .63.02.71.09.44.43.78.87.87h.07c.1.02.26.02.64.02h1c.48 0 .62 0 .7-.02V7.92a6 6 0 0 0-.7-.02zM6.09 3.8q-.7.01-1.17.05c-.56.04-.79.12-.92.19a2.2 2.2 0 0 0-.96.96 3 3 0 0 0-.2 1.02v.05l.13.01c.24.02.55.02 1.03.02q.7 0 1.03-.02c.24-.01.34-.04.4-.06l.09-.05q.34-.19.5-.55l.03-.13q.02-.08.03-.26a17 17 0 0 0 0-1.22M17.9 4q0 .7.02 1.03c.01.24.04.34.06.4q.18.4.6.59l.13.03.26.03c.24.02.55.02 1.03.02l1.16-.03v-.15a3 3 0 0 0-.15-.8L20.96 5a2 2 0 0 0-.81-.87L20 4.04a3 3 0 0 0-.92-.2q-.47-.03-1.17-.03z" clip-rule="evenodd"/></svg>

<svg viewBox="0 0 24 24" xmlns="http://www.w3.org/2000/svg" width="24" height="24"><path fill-rule="evenodd" d="M16.6 2C18.84 2 19.96 2 20.82 2.44A4 4 0 0 1 22.56 4.18C23 5.04 23 6.16 23 8.39L23 15.61C23 17.84 23 18.96 22.56 19.81A4 4 0 0 1 20.82 21.56C20.17 21.89 19.38 21.97 18.08 21.99L7.18 22C5.08 22 4.01 21.99 3.18 21.56A4 4 0 0 1 1.44 19.82C1 18.96 1 17.84 1 15.6L1 8.39C1 6.16 1 5.04 1.44 4.19A4 4 0 0 1 3.18 2.44C4.04 2 5.16 2 7.4 2ZM4 17.9l-1.16.03v.05a4 4 0 0 0 .2 1.02q.33.63.96.96l.12.05c.15.05.38.1.8.14q.47.04 1.17.04L6.1 20a17 17 0 0 0-.05-1.3l-.03-.12a1 1 0 0 0-.5-.55l-.1-.05a1 1 0 0 0-.39-.06c-.24-.02-.55-.02-1.03-.02M20 17.9A17 17 0 0 0 18.7 17.95L18.58 17.98Q18.22 18.14 18.03 18.48L17.98 18.58C17.96 18.64 17.93 18.73 17.92 18.97A17 17 0 0 0 17.92 20.19Q18.61 20.19 19.08 20.15C19.64 20.11 19.87 20.03 20 19.96L20.15 19.87Q20.68 19.57 20.96 19L21.01 18.88C21.06 18.73 21.11 18.5 21.15 18.08L21.16 17.94L21.03 17.93C20.79 17.91 20.48 17.91 20 17.91M3.5 12.91L2.8 12.92L2.8 16.09L2.86 16.09C2.96 16.11 3.12 16.11 3.5 16.11L4.5 16.11C5 16.11 5.13 16.11 5.21 16.09L5.37 16.05C5.73 15.92 6 15.61 6.07 15.22L6.09 15.15A9 9 0 0 0 6.09 13.87L6.08 13.8A1.1 1.1 0 0 0 5.38 12.97L5.21 12.93C5.13 12.91 5.01 12.91 4.5 12.91ZM19.5 12.91L18.79 12.93C18.4 13.01 18.09 13.28 17.96 13.63L17.92 13.8C17.9 13.88 17.9 14 17.9 14.51C17.9 15.01 17.9 15.14 17.92 15.22L17.96 15.38C18.09 15.74 18.4 16.01 18.79 16.08L20.5 16.11C20.97 16.11 21.11 16.11 21.2 16.09L21.2 12.93A6 6 0 0 0 20.5 12.91ZM8.2 10.8a1.2 1.2 0 0 0 0 2.4h7.6a1.2 1.2 0 0 0 0-2.4zM3.5 7.9L2.8 7.91L2.8 11.08L2.86 11.08C2.96 11.1 3.12 11.1 3.5 11.1L4.5 11.1C5 11.1 5.13 11.1 5.21 11.08L5.37 11.04C5.73 10.91 6 10.6 6.07 10.21L6.09 10.14A9 9 0 0 0 6.09 8.86L6.08 8.79A1.1 1.1 0 0 0 5.38 7.96L5.21 7.92C5.13 7.9 5.01 7.9 4.5 7.9ZM19.5 7.9L18.79 7.92C18.4 8 18.09 8.27 17.96 8.62L17.92 8.79C17.9 8.87 17.9 8.99 17.9 9.5C17.9 10 17.9 10.13 17.92 10.21C18.01 10.65 18.35 10.99 18.79 11.08L18.86 11.08C18.96 11.1 19.12 11.1 19.5 11.1L20.5 11.1C20.98 11.1 21.12 11.1 21.2 11.08L21.2 7.92A6 6 0 0 0 20.5 7.9ZM6.09 3.8Q5.39 3.81 4.92 3.85C4.36 3.89 4.13 3.97 4 4.04A2.2 2.2 0 0 0 3.04 5A3 3 0 0 0 2.84 6.02L2.97 6.08C3.21 6.1 3.52 6.1 4 6.1Q4.7 6.1 5.03 6.08C5.27 6.07 5.37 6.04 5.43 6.02L5.52 5.97Q5.86 5.78 6.02 5.42L6.05 5.29Q6.07 5.21 6.08 5.03A17 17 0 0 0 6.08 3.81M17.9 4Q17.9 4.7 17.92 5.03C17.93 5.27 17.96 5.37 17.98 5.43Q18.16 5.83 18.58 6.02L18.97 6.08C19.21 6.1 19.52 6.1 20 6.1L21.16 6.07L21.16 5.92A3 3 0 0 0 21.01 5.12L20.96 5A2 2 0 0 0 20.15 4.13L20 4.04A3 3 0 0 0 19.08 3.84Q18.61 3.81 17.91 3.81Z" clip-rule="evenodd"/></svg>
